X:87
T:the Spa
M:C
L:1/8
K:D
D2dc d2d2 | e2A2 f4 | a2f2 agfe | dcdf e2A2 |
D2dc d2d2 | e2A2 f4 | a2f2 agfe | d2c2 d4 :|
|:A3B c2A2 | c2d2 e4 | c2e2 fedc | BABc B2E2 |
A3B c2A2 | c2d2 e4 | c3e fedc | B4A4 :|
|:B3c d2B2 | c2e2 a2c2 | B3c d2B2 | d2f2 edcB | 
A3B c2A2 | c2e2 a2c2 | d2f2 edcB | B4A4 :|
%%newpage
%%textfont Timesbold 25
%%centre  3/2 HORNPIPES
%%vskip 1.5cm
